icons/arrow-up-down-line.svg

<svg viewBox="0 0 24 24" xmlns="http://www.w3.org/2000/svg"><path d="M11.9498 7.94975L10.5356 9.36396L8.00079 6.828L8.00004 20H6.00004L6.00079 6.828L3.46451 9.36396L2.05029 7.94975L7.00004 3L11.9498 7.94975ZM21.9498 16.0503L17 21L12.0503 16.0503L13.4645 14.636L16.0008 17.172L16 4H18L18.0008 17.172L20.5356 14.636L21.9498 16.0503Z"/></svg>

<svg xmlns="http://www.w3.org/2000/svg" viewBox="0 0 24 24">
    <g>
        <path fill="none" d="M0 0h24v24H0z"/>
        <path d="M11.95 7.95l-1.414 1.414L8 6.828 8 20H6V6.828L3.465 9.364 2.05 7.95 7 3l4.95 4.95zm10 8.1L17 21l-4.95-4.95 1.414-1.414 2.537 2.536L16 4h2v13.172l2.536-2.536 1.414 1.414z"/>
    </g>
</svg>
